evolvere-2-blue/actions/24/system-upgrade.svg

<?xml version="1.0" encoding="UTF-8" standalone="no"?>
<!-- Created with Inkscape (http://www.inkscape.org/) -->

<svg
   xmlns:dc="http://purl.org/dc/elements/1.1/"
   xmlns:cc="http://creativecommons.org/ns#"
   xmlns:rdf="http://www.w3.org/1999/02/22-rdf-syntax-ns#"
   xmlns:svg="http://www.w3.org/2000/svg"
   xmlns="http://www.w3.org/2000/svg"
   xmlns:sodipodi="http://sodipodi.sourceforge.net/DTD/sodipodi-0.dtd"
   xmlns:inkscape="http://www.inkscape.org/namespaces/inkscape"
   width="24"
   height="24"
   id="svg13094"
   version="1.1"
   inkscape:version="0.48.3.1 r9886"
   sodipodi:docname="system-upgrade.svg">
  <sodipodi:namedview
     id="base"
     pagecolor="#ffffff"
     bordercolor="#666666"
     borderopacity="1.0"
     inkscape:pageopacity="0.0"
     inkscape:pageshadow="2"
     inkscape:zoom="32.000002"
     inkscape:cx="10.787092"
     inkscape:cy="11.363189"
     inkscape:document-units="px"
     inkscape:current-layer="svg13094"
     showgrid="true"
     inkscape:snap-bbox="true"
     inkscape:bbox-paths="true"
     inkscape:bbox-nodes="true"
     inkscape:snap-bbox-edge-midpoints="true"
     inkscape:snap-bbox-midpoints="true"
     inkscape:object-paths="true"
     inkscape:snap-intersection-paths="true"
     inkscape:object-nodes="true"
     inkscape:snap-smooth-nodes="true"
     inkscape:snap-midpoints="true"
     inkscape:snap-object-midpoints="true"
     inkscape:snap-center="true"
     showguides="true"
     inkscape:guide-bbox="true"
     inkscape:window-width="1920"
     inkscape:window-height="1023"
     inkscape:window-x="-10"
     inkscape:window-y="35"
     inkscape:window-maximized="1"
     inkscape:snap-global="true"
     fit-margin-top="0"
     fit-margin-left="0"
     fit-margin-right="0"
     fit-margin-bottom="0"
     showborder="true"
     inkscape:showpageshadow="false">
    <inkscape:grid
       type="xygrid"
       id="grid3075"
       empspacing="5"
       visible="true"
       enabled="true"
       snapvisiblegridlinesonly="true"
       originx="1.6362304e-08px"
       originy="18px" />
  </sodipodi:namedview>
  <defs
     id="defs13096" />
  <metadata
     id="metadata13099">
    <rdf:RDF>
      <cc:Work
         rdf:about="">
        <dc:format>image/svg+xml</dc:format>
        <dc:type
           rdf:resource="http://purl.org/dc/dcmitype/StillImage" />
        <dc:title />
      </cc:Work>
    </rdf:RDF>
  </metadata>
  <path
     style="color:#000000;fill:#27303a;fill-opacity:0.753280819999999968;fill-rule:nonzero;stroke:none;stroke-width:2;marker:none;visibility:visible;display:inline;overflow:visible;enable-background:accumulate"
     d="M 3.84375 9 L 3.9375 9.40625 L 5.6875 10.9375 C 5.6255 11.2934 5.59375 11.65792 5.59375 12.03125 C 5.59375 12.40458 5.6255 12.7691 5.6875 13.125 L 3.9375 14.625 L 3.6875 15.65625 L 4.6875 17.40625 L 5.6875 17.65625 L 7.875 16.9375 C 7.885 16.9425 7.90025 16.9325 7.90625 16.9375 C 8.44835 17.38509 9.0798 17.74983 9.75 18 L 10.21875 20.28125 L 10.96875 21.03125 L 12.96875 21.03125 L 13.71875 20.28125 L 14.1875 18 C 14.8576 17.74983 15.48915 17.38509 16.03125 16.9375 L 16.0625 16.9375 L 18.25 17.65625 L 19.25 17.40625 L 20.25 15.65625 L 20 14.65625 L 18.25 13.125 C 18.312 12.7691 18.34375 12.40458 18.34375 12.03125 C 18.34375 11.65792 18.312 11.2934 18.25 10.9375 L 20 9.40625 L 20.09375 9 L 14.65625 9 C 15.48539 9.7328957 16 10.806368 16 12 C 16 14.209139 14.209139 16 12 16 C 9.790861 16 8 14.209139 8 12 C 8 10.806368 8.51461 9.7328957 9.34375 9 L 3.84375 9 z "
     id="path3017" />
  <path
     style="font-size:medium;font-style:normal;font-variant:normal;font-weight:normal;font-stretch:normal;text-indent:0;text-align:start;text-decoration:none;line-height:normal;letter-spacing:normal;word-spacing:normal;text-transform:none;direction:ltr;block-progression:tb;writing-mode:lr-tb;text-anchor:start;baseline-shift:baseline;color:#000000;fill:#f1f3f5;fill-opacity:0.90288714000000003;fill-rule:nonzero;stroke:none;stroke-width:2;marker:none;visibility:visible;display:inline;overflow:visible;enable-background:accumulate;font-family:Sans;-inkscape-font-specification:Sans"
     d="m 12,1.2499962 -4.25,5.75 1.25,0 3,-4 3,4 1.25,0 z m -2,5.75 0,5.9999998 0,1 4,0 0,-1 0,-5.9999998 -1,0 0,5.9999998 -2,0 0,-5.9999998 z"
     id="path3807"
     inkscape:connector-curvature="0"
     sodipodi:nodetypes="cccccccccccccccccc" />
  <path
     style="font-size:medium;font-style:normal;font-variant:normal;font-weight:normal;font-stretch:normal;text-indent:0;text-align:start;text-decoration:none;line-height:normal;letter-spacing:normal;word-spacing:normal;text-transform:none;direction:ltr;block-progression:tb;writing-mode:lr-tb;text-anchor:start;baseline-shift:baseline;color:#000000;fill:#27303a;fill-opacity:0.753280819999999968;fill-rule:nonzero;stroke:none;stroke-width:2.39999914;marker:none;visibility:visible;display:inline;overflow:visible;enable-background:accumulate;font-family:Sans;-inkscape-font-specification:Sans"
     d="m 12,3 -3,4 2,0 2.51e-4,5.999986 2.000001,0 L 13,7 15,7 z"
     id="path3132"
     inkscape:connector-curvature="0"
     sodipodi:nodetypes="cccccccc" />
  <path
     inkscape:connector-curvature="0"
     style="font-size:medium;font-style:normal;font-variant:normal;font-weight:normal;font-stretch:normal;text-indent:0;text-align:start;text-decoration:none;line-height:normal;letter-spacing:normal;word-spacing:normal;text-transform:none;direction:ltr;block-progression:tb;writing-mode:lr-tb;text-anchor:start;baseline-shift:baseline;color:#000000;fill:#f1f3f5;fill-opacity:0.90288714000000003;fill-rule:nonzero;stroke:none;stroke-width:2;marker:none;visibility:visible;display:inline;overflow:visible;enable-background:accumulate;font-family:Sans;-inkscape-font-specification:Sans"
     d="m 5.75,5.2187498 c -0.1107835,-0.00528 -0.2357481,0.006 -0.34375,0.03125 l -1,0.25 c -0.3116735,0.07701 -0.588802,0.2848562 -0.75,0.5625 l -1,1.75 c -0.1496668,0.2619931 -0.1953221,0.5815799 -0.125,0.875 l 0.25,1 c 0.05673,0.2402474 0.1897133,0.4618872 0.375,0.6250002 l 1.28125,1.125 c -0.015,0.19616 -0.03125,0.39423 -0.03125,0.59375 0,0.19952 0.01625,0.39759 0.03125,0.59375 l -1.28125,1.09375 c -0.1852867,0.163113 -0.3182704,0.384753 -0.375,0.625 l -0.25,1.03125 c -0.070322,0.29342 -0.024667,0.613007 0.125,0.875 l 1,1.75 c 0.161198,0.277644 0.4383265,0.48549 0.75,0.5625 l 1,0.25 C 5.6222539,18.863 5.8522723,18.85205 6.0625,18.78125 L 7.75,18.21875 c 0.2905,0.19819 0.58965,0.37421 0.90625,0.53125 l 0.375,1.78125 C 9.085234,20.756807 9.2062722,20.965874 9.375,21.125 l 0.75,0.75 c 0.05698,0.05827 0.119911,0.110713 0.1875,0.15625 l 3.28125,0 c 0.07846,-0.04368 0.151985,-0.0962 0.21875,-0.15625 l 0.75,-0.75 c 0.168728,-0.159126 0.289766,-0.368193 0.34375,-0.59375 l 0.375,-1.78125 c 0.3166,-0.15704 0.61565,-0.33306 0.90625,-0.53125 l 1.6875,0.5625 c 0.210228,0.0708 0.440246,0.08175 0.65625,0.03125 l 1,-0.25 c 0.311673,-0.07701 0.588802,-0.284856 0.75,-0.5625 l 1,-1.75 c 0.149667,-0.261993 0.195322,-0.58158 0.125,-0.875 l -0.25,-1 c -0.05673,-0.240247 -0.189713,-0.461887 -0.375,-0.625 L 19.5,12.625 c 0.015,-0.19616 0.03125,-0.39423 0.03125,-0.59375 0,-0.19952 -0.01625,-0.39759 -0.03125,-0.59375 l 1.28125,-1.125 c 0.185287,-0.163113 0.31827,-0.3847528 0.375,-0.6250002 l 0.25,-1 c 0.07032,-0.2934201 0.02467,-0.6130069 -0.125,-0.875 l -1,-1.75 c -0.161198,-0.2776438 -0.438327,-0.4854902 -0.75,-0.5625 l -1,-0.25 c -0.172388,-0.040305 -0.358194,-0.037162 -0.53125,0 l 0,1.25 0.25,-0.09375 1,0.25 1,1.75 -0.25,1 -1.75,1.5312502 c 0.062,0.3559 0.09375,0.72042 0.09375,1.09375 0,0.37333 -0.03175,0.73785 -0.09375,1.09375 l 1.75,1.53125 0.25,1 -1,1.75 -1,0.25 -2.1875,-0.71875 -0.03125,0 C 15.48915,17.38509 14.8576,17.74983 14.1875,18 l -0.46875,2.28125 -0.75,0.75 -2,0 -0.75,-0.75 L 9.75,18 C 9.0798,17.74983 8.44835,17.38509 7.90625,16.9375 c -0.006,-0.005 -0.02125,0.005 -0.03125,0 l -2.1875,0.71875 -1,-0.25 -1,-1.75 0.25,-1.03125 1.75,-1.5 c -0.062,-0.3559 -0.09375,-0.72042 -0.09375,-1.09375 0,-0.37333 0.03175,-0.73785 0.09375,-1.09375 l -1.75,-1.5312502 -0.25,-1 1,-1.75 1,-0.25 L 6,6.4999998 6,5.2812498 C 5.917066,5.2569637 5.839479,5.2230107 5.75,5.2187498 z"
     id="path3001-1-1" />
</svg>

<?xml version="1.0" encoding="UTF-8"?>
<svg id="a" width="24" height="24" version="1.1" xmlns="http://www.w3.org/2000/svg" xmlns:cc="http://creativecommons.org/ns#" xmlns:dc="http://purl.org/dc/elements/1.1/" xmlns:rdf="http://www.w3.org/1999/02/22-rdf-syntax-ns#">
	<metadata id="c">
		<rdf:RDF>
			<cc:Work rdf:about="">
				<dc:format>image/svg+xml</dc:format>
				<dc:type rdf:resource="http://purl.org/dc/dcmitype/StillImage"/>
			</cc:Work>
		</rdf:RDF>
	</metadata>
	<defs id="e">
		<style id="current-color-scheme" type="text/css">.ColorScheme-Text {color:#090d11;}.ColorScheme-Background{color:#ffffff;}</style>
	</defs>
	<path id="b" class="ColorScheme-Text" d="m12 3-3 4h2v6h2v-6h2zm-8.1562 6 0.09375 0.40625 1.75 1.5312c-0.062 0.3559-0.09375 0.72042-0.09375 1.0938s0.03175 0.73785 0.09375 1.0938l-1.75 1.5-0.25 1.0312 1 1.75 1 0.25 2.1875-0.71875c0.01 5e-3 0.02525-5e-3 0.03125 0 0.5421 0.44759 1.1736 0.81233 1.8438 1.0625l0.46875 2.2812 0.75 0.75h2l0.75-0.75 0.46875-2.2812c0.6701-0.25017 1.3016-0.61491 1.8438-1.0625h0.03125l2.1875 0.71875 1-0.25 1-1.75-0.25-1-1.75-1.5312c0.062-0.3559 0.09375-0.72042 0.09375-1.0938s-0.03175-0.73785-0.09375-1.0938l1.75-1.5312 0.09375-0.40625h-5.4375c0.82914 0.7329 1.3438 1.8064 1.3438 3 0 2.2091-1.7909 4-4 4s-4-1.7909-4-4c0-1.1936 0.51461-2.2671 1.3438-3z" style="fill-opacity:.75;fill:currentColor"/>
	<path id="d" class="ColorScheme-Background" d="m12 1.25-4.25 5.75h1.25l3-4 3 4h1.25zm-6.25 3.9688c-0.11078-0.00528-0.23575 6e-3 -0.34375 0.03125l-1 0.25c-0.31167 0.07701-0.5888 0.28486-0.75 0.5625l-1 1.75c-0.14967 0.26199-0.19532 0.58158-0.125 0.875l0.25 1c0.05673 0.24025 0.18971 0.46189 0.375 0.625l1.2812 1.125c-0.015 0.19616-0.03125 0.39423-0.03125 0.59375s0.01625 0.39759 0.03125 0.59375l-1.2812 1.0938c-0.18529 0.16311-0.31827 0.38475-0.375 0.625l-0.25 1.0312c-0.070322 0.29342-0.024667 0.61301 0.125 0.875l1 1.75c0.1612 0.27764 0.43833 0.48549 0.75 0.5625l1 0.25c0.216 0.0505 0.44602 0.03955 0.65625-0.03125l1.6875-0.5625c0.2905 0.19819 0.58965 0.37421 0.90625 0.53125l0.375 1.7812c0.053984 0.22556 0.17502 0.43462 0.34375 0.59375l0.75 0.75c0.05698 0.05827 0.11991 0.11071 0.1875 0.15625h3.2812c0.07846-0.04368 0.15198-0.0962 0.21875-0.15625l0.75-0.75c0.16873-0.15913 0.28977-0.36819 0.34375-0.59375l0.375-1.7812c0.3166-0.15704 0.61565-0.33306 0.90625-0.53125l1.6875 0.5625c0.21023 0.0708 0.44025 0.08175 0.65625 0.03125l1-0.25c0.31167-0.07701 0.5888-0.28486 0.75-0.5625l1-1.75c0.14967-0.26199 0.19532-0.58158 0.125-0.875l-0.25-1c-0.05673-0.24025-0.18971-0.46189-0.375-0.625l-1.2812-1.125c0.015-0.19616 0.03125-0.39423 0.03125-0.59375s-0.01625-0.39759-0.03125-0.59375l1.2812-1.125c0.18529-0.16311 0.31827-0.38475 0.375-0.625l0.25-1c0.07032-0.29342 0.02467-0.61301-0.125-0.875l-1-1.75c-0.1612-0.27764-0.43833-0.48549-0.75-0.5625l-1-0.25c-0.17239-0.040305-0.35819-0.037162-0.53125 0v1.25l0.25-0.09375 1 0.25 1 1.75-0.25 1-1.75 1.5312c0.062 0.3559 0.09375 0.72042 0.09375 1.0938s-0.03175 0.73785-0.09375 1.0938l1.75 1.5312 0.25 1-1 1.75-1 0.25-2.1875-0.71875h-0.03125c-0.5421 0.44759-1.1736 0.81233-1.8438 1.0625l-0.46875 2.2812-0.75 0.75h-2l-0.75-0.75-0.46875-2.2812c-0.6702-0.25017-1.3016-0.61491-1.8438-1.0625-6e-3 -5e-3 -0.02125 5e-3 -0.03125 0l-2.1875 0.71875-1-0.25-1-1.75 0.25-1.0312 1.75-1.5c-0.062-0.3559-0.09375-0.72042-0.09375-1.0938s0.03175-0.73785 0.09375-1.0938l-1.75-1.5312-0.25-1 1-1.75 1-0.25 0.3125 0.09375v-1.2188c-0.082934-0.024286-0.16052-0.058239-0.25-0.0625zm4.25 1.7812v7h4v-7h-1v6h-2v-6z" style="fill-opacity:.5;fill:currentColor"/>
</svg>
